icons/1_Primary/Jottacloud.svg

<svg xmlns="http://www.w3.org/2000/svg" width="1024" height="1024" fill="none">
   <g clip-path="url(#a)">
      <path fill="#FF837D" d="M512 1024c282.77 0 512-229.23 512-512S794.77 0 512 0 0 229.23 0 512s229.23 512 512 512Z"/>
      <path fill="#fff" d="M674.78 288H736v298.66C736 669.13 667.48 736 582.96 736h-61.22V437.34c0-82.47 68.52-149.34 153.04-149.34ZM502.26 736h-61.22C356.52 736 288 667.48 288 582.96v-61.22h61.22c84.52 0 153.04 68.52 153.04 153.04V736Z"/>
   </g>
   <defs>
      <clipPath id="a">
         <path fill="#fff" d="M0 0h1024v1024H0z"/>
      </clipPath>
   </defs>
</svg>

<svg width="1024" height="1024" viewBox="0 0 1024 1024" fill="none" xmlns="http://www.w3.org/2000/svg">
<g clip-path="url(#clip0_2_2568)">
<path d="M512 1024C794.77 1024 1024 794.77 1024 512C1024 229.23 794.77 0 512 0C229.23 0 0 229.23 0 512C0 794.77 229.23 1024 512 1024Z" fill="#FF837D"/>
<path d="M674.78 288H736V586.66C736 669.13 667.48 736 582.96 736H521.74V437.34C521.74 354.87 590.26 288 674.78 288ZM502.26 736H441.04C356.52 736 288 667.48 288 582.96V521.74H349.22C433.74 521.74 502.26 590.26 502.26 674.78V736Z" fill="white"/>
</g>
<defs>
<clipPath id="clip0_2_2568">
<rect width="1024" height="1024" fill="white"/>
</clipPath>
</defs>
</svg>
